svg/emoji_u1f6df.svg

<svg width="128" height="128" viewBox="0 0 128 128" fill="none" xmlns="http://www.w3.org/2000/svg">
<path fill-rule="evenodd" clip-rule="evenodd" d="M78 9H50C39.5443 9 32.0043 9.00637 26.2598 9.7787C20.6015 10.5394 17.1365 11.9935 14.565 14.565C11.9935 17.1365 10.5394 20.6015 9.7787 26.2598C9.00637 32.0043 9 39.5443 9 50V78C9 88.4557 9.00637 95.9957 9.7787 101.74C10.5394 107.398 11.9935 110.864 14.565 113.435C17.1365 116.007 20.6015 117.461 26.2598 118.221C32.0043 118.994 39.5443 119 50 119H78C88.4557 119 95.9957 118.994 101.74 118.221C107.398 117.461 110.864 116.007 113.435 113.435C116.007 110.864 117.461 107.398 118.221 101.74C118.994 95.9957 119 88.4557 119 78V50C119 39.5443 118.994 32.0043 118.221 26.2598C117.461 20.6015 116.007 17.1365 113.435 14.565C110.864 11.9935 107.398 10.5394 101.74 9.7787C95.9957 9.00637 88.4557 9 78 9ZM12.4437 12.4437C6 18.8873 6 29.2582 6 50V78C6 98.7418 6 109.113 12.4437 115.556C18.8873 122 29.2582 122 50 122H78C98.7418 122 109.113 122 115.556 115.556C122 109.113 122 98.7418 122 78V50C122 29.2582 122 18.8873 115.556 12.4437C109.113 6 98.7418 6 78 6H50C29.2582 6 18.8873 6 12.4437 12.4437Z" fill="#BDBDBD" style="fill:#BDBDBD;fill:color(display-p3 0.7412 0.7412 0.7412);fill-opacity:1;"/>
<path d="M63.9566 11C31.9359 11 8 37.2911 8 67.6649C8 98.0387 32.1096 121 63.9566 121C96.7684 121 120 98.1835 120 67.8097C120 37.4359 102.769 11 63.9566 11ZM63.8022 89.5163C49.5333 89.5163 37.9754 77.9439 37.9754 63.6788C37.9754 49.4136 49.5429 37.8413 63.8022 37.8413C78.0615 37.8413 89.6291 49.4136 89.6291 63.6788C89.6291 77.9439 78.0615 89.5163 63.8022 89.5163Z" fill="#BDBDBD" style="fill:#BDBDBD;fill:color(display-p3 0.7412 0.7412 0.7412);fill-opacity:1;"/>
<path d="M64.0055 7C31.9784 7 8.02798 31.8729 9.03034 62C10.0423 92.3585 30.0316 117 64.0152 117C99.2132 117 119 92.3777 119 62C119 31.6223 98.471 7 64.0055 7ZM63.8031 91.3655C47.6691 91.3655 34.5903 78.2831 34.5903 62.1446C34.5903 46.0061 47.6691 32.9238 63.8031 32.9238C79.9372 32.9238 93.0159 46.0061 93.0159 62.1446C93.0159 78.2831 79.9372 91.3655 63.8031 91.3655Z" fill="#E0E0E0" style="fill:#E0E0E0;fill:color(display-p3 0.8784 0.8784 0.8784);fill-opacity:1;"/>
<g opacity="0.88">
<path d="M19.13 39.9698C17.79 39.4698 17.87 37.1598 18.46 35.6298C22.91 24.0798 30.65 17.4798 43.07 13.0698C45.61 12.1698 46.91 12.6198 47.38 14.2498C47.83 15.8298 46.7 16.8998 45.18 17.5498C35.72 21.6098 27.6 29.1898 22.88 38.3398C22.36 39.3498 20.81 40.5898 19.13 39.9698Z" fill="white" style="fill:white;fill-opacity:1;"/>
</g>
<path d="M74.35 6.1C74.15 5.41 73.88 4.98 73.19 4.8C71.85 4.46 69.1 4 64.07 4C59.04 4 56.29 4.46 54.95 4.8C54.26 4.98 54.07 5.29 53.87 5.98C53.33 7.82 52.32 10.89 52.53 18.91C52.73 26.65 55.24 34.61 55.24 34.61C55.41 34.97 59.58 35.12 64.07 35.12C68.56 35.13 72.73 34.97 72.9 34.61C72.9 34.61 75.11 26.83 75.11 18.98C75.11 12.06 74.89 7.94 74.35 6.1Z" fill="#FF3D00" style="fill:#FF3D00;fill:color(display-p3 1.0000 0.2392 0.0000);fill-opacity:1;"/>
<path d="M73.1701 91.19C72.8401 90.5 72.3101 89.87 71.4401 89.6C71.0501 89.48 70.6401 89.49 70.2501 89.61C69.2301 89.95 67.7801 90.38 64.0701 90.38C60.3601 90.38 58.9201 89.95 57.8901 89.61C57.5001 89.48 57.0901 89.48 56.7001 89.6C55.8301 89.86 55.3001 90.5 54.9701 91.19C54.9701 91.19 52.9501 94.12 52.9501 105.68C52.9501 111.48 53.3901 116.01 53.7001 118.42C53.8601 119.67 54.4301 120.67 54.4301 120.67C54.4301 120.67 59.3301 121.43 64.0801 121.37C68.8301 121.43 73.4501 120.5 73.4501 120.5C73.4501 120.5 74.1501 119.71 74.3201 118.54C74.6701 116.16 75.2001 111.58 75.2001 105.68C75.1901 94.11 73.1701 91.19 73.1701 91.19Z" fill="#FF3D00" style="fill:#FF3D00;fill:color(display-p3 1.0000 0.2392 0.0000);fill-opacity:1;"/>
<path d="M74.1501 119.63C74.3001 118.94 73.8101 118.93 73.0901 119.03C71.5401 119.24 68.4701 119.82 63.8101 119.82C59.2801 119.82 56.5701 119.26 55.0501 119.05C54.3001 118.95 53.8001 119.17 54.0101 119.88C54.3601 121.07 55.0301 123.05 56.0501 123.39C56.0501 123.39 59.4901 124.01 64.0001 124.01C70.0001 124.01 72.3301 123.38 72.3301 123.38C73.1201 123.12 73.8701 120.97 74.1501 119.63Z" fill="#DD2C00" style="fill:#DD2C00;fill:color(display-p3 0.8667 0.1725 0.0000);fill-opacity:1;"/>
<path d="M55.08 34.7898C55.49 36.2298 56.88 38.0798 56.88 38.0798C57.26 38.5598 57.65 38.5898 58.44 38.4298C59.7 38.1798 61.57 37.6898 64.09 37.6898C66.62 37.6898 68.41 38.1598 69.71 38.4198C70.51 38.5798 70.81 38.4498 71.15 38.1198C71.15 38.1198 72.67 35.7998 73.03 34.8398C73.21 34.3498 73.13 33.9498 71.88 33.4798C70.44 32.9398 68.19 32.2798 64.03 32.2798C59.91 32.2798 57.74 32.8998 56.32 33.3698C55.29 33.6998 54.89 34.1198 55.08 34.7898Z" fill="#DD2C00" style="fill:#DD2C00;fill:color(display-p3 0.8667 0.1725 0.0000);fill-opacity:1;"/>
<path d="M8.37999 53.1098C7.67999 53.2698 7.13999 53.7398 6.94999 54.3598C6.57999 55.5498 6.28999 56.8798 6.14999 61.3798C6.01999 65.8898 6.42999 69.7998 6.72999 71.0098C6.80999 71.3198 6.82999 72.0498 7.33999 71.8698C8.16999 71.5798 9.75999 70.5198 20.5 69.9798C26.47 69.6798 33.13 70.3298 35.05 70.4498C36.21 70.5198 37.37 70.1498 37.37 70.1498C37.73 70.0098 36.47 66.2998 36.58 62.2798C36.71 58.2598 37.39 54.9398 37.39 54.9398C37.39 54.9398 36.76 54.1698 35.19 53.5898C33.95 53.1298 28.98 51.5998 22.22 51.4398C11.73 51.1998 8.37999 53.1098 8.37999 53.1098Z" fill="#FF3D00" style="fill:#FF3D00;fill:color(display-p3 1.0000 0.2392 0.0000);fill-opacity:1;"/>
<path d="M35.1801 54.5001C35.3401 54.0301 35.9901 53.8701 36.4101 54.1801C36.4101 54.1801 37.7601 55.0601 38.2301 55.6901C38.7001 56.3301 38.8101 56.4501 38.6801 56.9001C38.4301 57.7801 37.6801 60.2301 37.6801 63.2601C37.6801 66.1901 38.2701 68.3701 38.3501 69.5501C38.3801 69.9901 38.1201 70.1401 37.0101 70.3001C36.6201 70.3601 35.4401 70.6901 35.0901 69.5301C34.7201 68.2701 34.0901 65.6301 34.0801 62.2201C34.0701 58.4901 34.7401 55.7801 35.1801 54.5001Z" fill="#DD2C00" style="fill:#DD2C00;fill:color(display-p3 0.8667 0.1725 0.0000);fill-opacity:1;"/>
<path d="M119.62 52.6901C120.32 52.8601 120.86 53.3501 121.05 54.0001C121.42 55.2501 121.71 56.6401 121.85 61.3601C121.98 66.0801 121.57 70.1801 121.27 71.4501C121.19 71.7801 120.99 72.1801 120.45 72.1601C119.91 72.1401 116.98 70.3601 106.24 69.9301C96.2301 69.5201 91.3701 71.1101 91.3701 71.1101C91.0101 70.9601 91.5301 66.5201 91.4201 62.3001C91.2901 58.0901 90.6101 54.6101 90.6101 54.6101C90.6101 54.6101 91.2401 53.8101 92.8101 53.2001C94.0501 52.7201 99.0201 51.1101 105.78 50.9501C116.27 50.6901 119.62 52.6901 119.62 52.6901Z" fill="#FF3D00" style="fill:#FF3D00;fill:color(display-p3 1.0000 0.2392 0.0000);fill-opacity:1;"/>
<path d="M92.8201 54.1499C92.6601 53.6599 92.01 53.4899 91.59 53.8199C91.59 53.8199 90.24 54.7399 89.77 55.4099C89.3 56.0799 89.1901 56.2099 89.3201 56.6799C89.5701 57.5999 90.3201 60.1699 90.3201 63.3499C90.3201 66.4199 89.5301 69.7799 89.4601 71.0199C89.4301 71.4799 90.26 71.1299 91.38 71.1199C91.93 71.1199 92.5701 71.1299 92.9101 69.9199C93.2801 68.5999 93.9101 65.8299 93.9201 62.2599C93.9401 58.3299 93.2701 55.4899 92.8201 54.1499Z" fill="#DD2C00" style="fill:#DD2C00;fill:color(display-p3 0.8667 0.1725 0.0000);fill-opacity:1;"/>
<path d="M71.5 89.6198C71.14 89.4998 70.54 89.5198 70.18 89.6398C69.16 89.9798 67.7 90.3898 64.07 90.3898C60.46 90.3898 58.99 89.9798 57.97 89.6398C57.59 89.5098 57.18 89.4698 56.79 89.5698C56.14 89.7498 55.48 90.1598 55 90.9598C54.69 91.4898 54.98 92.1798 55.57 92.3398C57.34 92.8198 60.08 93.2798 64.02 93.2098C67.76 93.1398 70.58 92.7198 72.52 92.2998C73.13 92.1698 73.45 91.4498 73.12 90.9098C72.7 90.2198 72.09 89.8098 71.5 89.6198Z" fill="#DD2C00" style="fill:#DD2C00;fill:color(display-p3 0.8667 0.1725 0.0000);fill-opacity:1;"/>
<path d="M6.12005 72.1702C4.73005 66.2302 5.11005 60.3502 6.36005 55.1902C6.62005 54.1202 7.19005 53.4302 7.65005 53.4302C7.65005 53.4302 7.63005 53.6802 7.51005 54.1802C6.26005 59.5102 6.65005 65.6802 7.63005 71.1202C7.72005 71.6302 7.51005 71.8002 7.18005 71.9802C7.01005 72.0802 6.83005 72.1902 6.69005 72.2802C6.20005 72.6202 6.12005 72.1702 6.12005 72.1702Z" fill="#DD2C00" style="fill:#DD2C00;fill:color(display-p3 0.8667 0.1725 0.0000);fill-opacity:1;"/>
<path d="M121.88 72.6598C123.27 66.4298 122.89 60.2798 121.64 54.8698C121.38 53.7498 120.81 53.0298 120.35 53.0298C120.35 53.0298 120.37 53.2898 120.49 53.8098C121.74 59.3998 121.35 65.8598 120.37 71.5598C120.28 72.0998 120.49 72.2698 120.82 72.4598C120.99 72.5598 121.17 72.6798 121.31 72.7698C121.8 73.1298 121.88 72.6598 121.88 72.6598Z" fill="#DD2C00" style="fill:#DD2C00;fill:color(display-p3 0.8667 0.1725 0.0000);fill-opacity:1;"/>
</svg>

<?xml version="1.0" encoding="utf-8"?>
<!-- Generator: Adobe Illustrator 25.2.3, SVG Export Plug-In . SVG Version: 6.00 Build 0)  -->
<svg version="1.1" id="Layer_2" xmlns="http://www.w3.org/2000/svg" xmlns:xlink="http://www.w3.org/1999/xlink" x="0px" y="0px"
	 viewBox="0 0 128 128" style="enable-background:new 0 0 128 128;" xml:space="preserve">
<g>
	<path style="fill:#DD2C00;" d="M64.03,9.51c-33.19,0-58,27.24-58,58.71s24.99,55.26,58,55.26c34.01,0,58.09-23.64,58.09-55.11
		S104.26,9.51,64.03,9.51z M63.87,90.86c-14.79,0-26.77-11.99-26.77-26.77s11.99-26.77,26.77-26.77s26.77,11.99,26.77,26.77
		S78.65,90.86,63.87,90.86z"/>
	<path style="fill:#FF3D00;" d="M64.08,4.92C30.85,4.92,6,30.72,7.04,61.97c1.05,31.49,21.79,57.05,57.05,57.05
		c36.52,0,57.05-25.54,57.05-57.05S99.84,4.92,64.08,4.92z M63.87,92.43c-16.74,0-30.31-13.57-30.31-30.31s13.57-30.31,30.31-30.31
		s30.31,13.57,30.31,30.31S80.61,92.43,63.87,92.43z"/>
	<g style="opacity:0.88;">
		<path style="fill:#FF9E80;" d="M19.13,39.97c-1.34-0.5-1.26-2.81-0.67-4.34c4.45-11.55,12.19-18.15,24.61-22.56
			c2.54-0.9,3.84-0.45,4.31,1.18c0.45,1.58-0.68,2.65-2.2,3.3c-9.46,4.06-17.58,11.64-22.3,20.79
			C22.36,39.35,20.81,40.59,19.13,39.97z"/>
	</g>
	<path style="fill:#E0E0E0;" d="M74.35,6.1c-0.2-0.69-0.47-1.12-1.16-1.3C71.85,4.46,69.1,4,64.07,4c-5.03,0-7.78,0.46-9.12,0.8
		c-0.69,0.18-0.88,0.49-1.08,1.18c-0.54,1.84-1.55,4.91-1.34,12.93c0.2,7.74,2.71,15.7,2.71,15.7c0.17,0.36,4.34,0.51,8.83,0.51
		c4.49,0.01,8.66-0.15,8.83-0.51c0,0,2.21-7.78,2.21-15.63C75.11,12.06,74.89,7.94,74.35,6.1z"/>
	<path style="fill:#E0E0E0;" d="M73.17,91.19c-0.33-0.69-0.86-1.32-1.73-1.59c-0.39-0.12-0.8-0.11-1.19,0.01
		c-1.02,0.34-2.47,0.77-6.18,0.77c-3.71,0-5.15-0.43-6.18-0.77c-0.39-0.13-0.8-0.13-1.19-0.01c-0.87,0.26-1.4,0.9-1.73,1.59
		c0,0-2.02,2.93-2.02,14.49c0,5.8,0.44,10.33,0.75,12.74c0.16,1.25,0.73,2.25,0.73,2.25s4.9,0.76,9.65,0.7
		c4.75,0.06,9.37-0.87,9.37-0.87s0.7-0.79,0.87-1.96c0.35-2.38,0.88-6.96,0.88-12.86C75.19,94.11,73.17,91.19,73.17,91.19z"/>
	<path style="fill:#9E9E9E;" d="M74.15,119.63c0.15-0.69-0.34-0.7-1.06-0.6c-1.55,0.21-4.62,0.79-9.28,0.79
		c-4.53,0-7.24-0.56-8.76-0.77c-0.75-0.1-1.25,0.12-1.04,0.83c0.35,1.19,1.02,3.17,2.04,3.51c0,0,3.44,0.62,7.95,0.62
		c6,0,8.33-0.63,8.33-0.63C73.12,123.12,73.87,120.97,74.15,119.63z"/>
	<path style="fill:#9E9E9E;" d="M55.08,34.79c0.41,1.44,1.8,3.29,1.8,3.29c0.38,0.48,0.77,0.51,1.56,0.35
		c1.26-0.25,3.13-0.74,5.65-0.74c2.53,0,4.32,0.47,5.62,0.73c0.8,0.16,1.1,0.03,1.44-0.3c0,0,1.52-2.32,1.88-3.28
		c0.18-0.49,0.1-0.89-1.15-1.36c-1.44-0.54-3.69-1.2-7.85-1.2c-4.12,0-6.29,0.62-7.71,1.09C55.29,33.7,54.89,34.12,55.08,34.79z"/>
	<path style="fill:#E0E0E0;" d="M8.38,53.11c-0.7,0.16-1.24,0.63-1.43,1.25c-0.37,1.19-0.66,2.52-0.8,7.02
		c-0.13,4.51,0.28,8.42,0.58,9.63c0.08,0.31,0.1,1.04,0.61,0.86c0.83-0.29,2.42-1.35,13.16-1.89c5.97-0.3,12.63,0.35,14.55,0.47
		c1.16,0.07,2.32-0.3,2.32-0.3c0.36-0.14-0.9-3.85-0.79-7.87c0.13-4.02,0.81-7.34,0.81-7.34s-0.63-0.77-2.2-1.35
		c-1.24-0.46-6.21-1.99-12.97-2.15C11.73,51.2,8.38,53.11,8.38,53.11z"/>
	<path style="fill:#9E9E9E;" d="M35.18,54.5c0.16-0.47,0.81-0.63,1.23-0.32c0,0,1.35,0.88,1.82,1.51c0.47,0.64,0.58,0.76,0.45,1.21
		c-0.25,0.88-1,3.33-1,6.36c0,2.93,0.59,5.11,0.67,6.29c0.03,0.44-0.23,0.59-1.34,0.75c-0.39,0.06-1.57,0.39-1.92-0.77
		c-0.37-1.26-1-3.9-1.01-7.31C34.07,58.49,34.74,55.78,35.18,54.5z"/>
	<path style="fill:#E0E0E0;" d="M119.62,52.69c0.7,0.17,1.24,0.66,1.43,1.31c0.37,1.25,0.66,2.64,0.8,7.36
		c0.13,4.72-0.28,8.82-0.58,10.09c-0.08,0.33-0.28,0.73-0.82,0.71s-3.47-1.8-14.21-2.23c-10.01-0.41-14.87,1.18-14.87,1.18
		c-0.36-0.15,0.16-4.59,0.05-8.81c-0.13-4.21-0.81-7.69-0.81-7.69s0.63-0.8,2.2-1.41c1.24-0.48,6.21-2.09,12.97-2.25
		C116.27,50.69,119.62,52.69,119.62,52.69z"/>
	<path style="fill:#BDBDBD;" d="M92.82,54.15c-0.16-0.49-0.81-0.66-1.23-0.33c0,0-1.35,0.92-1.82,1.59
		c-0.47,0.67-0.58,0.8-0.45,1.27c0.25,0.92,1,3.49,1,6.67c0,3.07-0.79,6.43-0.86,7.67c-0.03,0.46,0.8,0.11,1.92,0.1
		c0.55,0,1.19,0.01,1.53-1.2c0.37-1.32,1-4.09,1.01-7.66C93.94,58.33,93.27,55.49,92.82,54.15z"/>
	<path style="fill:#BDBDBD;" d="M71.5,89.62c-0.36-0.12-0.96-0.1-1.32,0.02c-1.02,0.34-2.48,0.75-6.11,0.75
		c-3.61,0-5.08-0.41-6.1-0.75c-0.38-0.13-0.79-0.17-1.18-0.07c-0.65,0.18-1.31,0.59-1.79,1.39c-0.31,0.53-0.02,1.22,0.57,1.38
		c1.77,0.48,4.51,0.94,8.45,0.87c3.74-0.07,6.56-0.49,8.5-0.91c0.61-0.13,0.93-0.85,0.6-1.39C72.7,90.22,72.09,89.81,71.5,89.62z"/>
	<g>
		<path style="fill:#BDBDBD;" d="M6.12,72.17c-1.39-5.94-1.01-11.82,0.24-16.98c0.26-1.07,0.83-1.76,1.29-1.76
			c0,0-0.02,0.25-0.14,0.75c-1.25,5.33-0.86,11.5,0.12,16.94c0.09,0.51-0.12,0.68-0.45,0.86c-0.17,0.1-0.35,0.21-0.49,0.3
			C6.2,72.62,6.12,72.17,6.12,72.17z"/>
	</g>
	<g>
		<path style="fill:#9E9E9E;" d="M121.88,72.66c1.39-6.23,1.01-12.38-0.24-17.79c-0.26-1.12-0.83-1.84-1.29-1.84
			c0,0,0.02,0.26,0.14,0.78c1.25,5.59,0.86,12.05-0.12,17.75c-0.09,0.54,0.12,0.71,0.45,0.9c0.17,0.1,0.35,0.22,0.49,0.31
			C121.8,73.13,121.88,72.66,121.88,72.66z"/>
	</g>
</g>
</svg>
